assets/static/img/icon/cart.svg

<svg width="24" height="24" viewBox="0 0 24 24" fill="none" xmlns="http://www.w3.org/2000/svg">
	<mask id="path-1-inside-1_98_59" fill="white">
		<path d="M1.49986 5.04583C1.22357 5.04583 1 4.81195 1 4.52292C1 4.23388 1.22357 4 1.49986 4H4.5931C4.82534 4 5.02088 4.16546 5.07694 4.39027L5.62818 6.03092H13.3876H21.5001C21.7764 6.03092 22 6.2648 22 6.55384C22 6.62016 21.988 6.6837 21.9666 6.74234L20.7754 10.7037C20.7707 10.7246 20.764 10.7455 20.7567 10.7658L19.9879 13.3203C19.9272 13.5235 19.7597 13.6603 19.5701 13.6834L13.4724 14.443C13.4564 14.4457 13.439 14.4478 13.4223 14.4492L8.07474 15.1153L7.02498 15.449V17.135H9.35742H15.9643H19.0876C19.3639 17.135 19.5875 17.3689 19.5875 17.6579C19.5875 17.947 19.3639 18.1809 19.0876 18.1809H17.6061C17.7375 18.4462 17.8116 18.7478 17.8116 19.0675C17.8116 19.6009 17.6047 20.0847 17.2704 20.4338C16.936 20.7836 16.4742 21 15.9643 21C15.4538 21 14.992 20.7836 14.6583 20.4338C14.324 20.084 14.1171 19.6009 14.1171 19.0675C14.1171 18.7478 14.1912 18.4462 14.3226 18.1809H10.9998C11.1306 18.4462 11.2054 18.7478 11.2054 19.0675C11.2054 19.6009 10.9985 20.0847 10.6641 20.4338C10.3298 20.7836 9.86796 21 9.35809 21C8.84756 21 8.38574 20.7836 8.05205 20.4338C7.7177 20.084 7.51082 19.6009 7.51082 19.0675C7.51082 18.7478 7.5849 18.4462 7.71637 18.1809H6.52579C6.2495 18.1809 6.02593 17.947 6.02593 17.6579V15.0629H6.02793C6.02793 14.8395 6.16675 14.6322 6.38164 14.5644L7.33864 14.2607L6.17209 10.7902C6.16141 10.7644 6.15206 10.7379 6.14539 10.7106L4.80599 6.72558L4.80532 6.72279L4.2414 5.04583H1.50052H1.49986ZM16.5643 18.4413C16.4108 18.2807 16.1993 18.1816 15.965 18.1816C15.7308 18.1816 15.5185 18.2807 15.3657 18.4413C15.2122 18.6018 15.1175 18.8232 15.1175 19.0682C15.1175 19.3133 15.2122 19.5353 15.3657 19.6952C15.5192 19.8557 15.7308 19.9549 15.965 19.9549C16.1993 19.9549 16.4108 19.855 16.5643 19.6952C16.7178 19.5346 16.8126 19.3133 16.8126 19.0682C16.8126 18.8232 16.7178 18.6011 16.5643 18.4413ZM9.95738 18.4413C9.80389 18.2807 9.59234 18.1816 9.35809 18.1816C9.12384 18.1816 8.91162 18.2807 8.75879 18.4413C8.6053 18.6018 8.51053 18.8232 8.51053 19.0682C8.51053 19.3133 8.6053 19.5353 8.75879 19.6952C8.91229 19.8557 9.12384 19.9549 9.35809 19.9549C9.59234 19.9549 9.80456 19.855 9.95738 19.6952C10.1109 19.5346 10.2056 19.3133 10.2056 19.0682C10.2056 18.8232 10.1109 18.6011 9.95738 18.4413ZM6.98093 10.0544H9.29803L9.00772 7.07676H5.97988L6.98093 10.0544ZM10.2997 10.0544H12.8878V7.07676H10.0094L10.2997 10.0544ZM13.8875 10.0544H16.4755L16.7658 7.07676H13.8875V10.0544ZM17.4779 10.0544H19.9238L20.8194 7.07676H17.7682L17.4779 10.0544ZM19.6088 11.1002H17.3758L17.1976 12.9266L19.1323 12.6857L19.6095 11.1002H19.6088ZM16.3734 11.1002H13.8875V13.3385L16.1826 13.0529L16.3728 11.1002H16.3734ZM12.8878 11.1002H10.4018L10.6595 13.7406L12.8878 13.4634V11.1002ZM9.40013 11.1002H7.33263L8.31833 14.0324L9.66975 13.8642L9.40013 11.1002Z" />
	</mask>
	<path d="M1.49986 5.04583C1.22357 5.04583 1 4.81195 1 4.52292C1 4.23388 1.22357 4 1.49986 4H4.5931C4.82534 4 5.02088 4.16546 5.07694 4.39027L5.62818 6.03092H13.3876H21.5001C21.7764 6.03092 22 6.2648 22 6.55384C22 6.62016 21.988 6.6837 21.9666 6.74234L20.7754 10.7037C20.7707 10.7246 20.764 10.7455 20.7567 10.7658L19.9879 13.3203C19.9272 13.5235 19.7597 13.6603 19.5701 13.6834L13.4724 14.443C13.4564 14.4457 13.439 14.4478 13.4223 14.4492L8.07474 15.1153L7.02498 15.449V17.135H9.35742H15.9643H19.0876C19.3639 17.135 19.5875 17.3689 19.5875 17.6579C19.5875 17.947 19.3639 18.1809 19.0876 18.1809H17.6061C17.7375 18.4462 17.8116 18.7478 17.8116 19.0675C17.8116 19.6009 17.6047 20.0847 17.2704 20.4338C16.936 20.7836 16.4742 21 15.9643 21C15.4538 21 14.992 20.7836 14.6583 20.4338C14.324 20.084 14.1171 19.6009 14.1171 19.0675C14.1171 18.7478 14.1912 18.4462 14.3226 18.1809H10.9998C11.1306 18.4462 11.2054 18.7478 11.2054 19.0675C11.2054 19.6009 10.9985 20.0847 10.6641 20.4338C10.3298 20.7836 9.86796 21 9.35809 21C8.84756 21 8.38574 20.7836 8.05205 20.4338C7.7177 20.084 7.51082 19.6009 7.51082 19.0675C7.51082 18.7478 7.5849 18.4462 7.71637 18.1809H6.52579C6.2495 18.1809 6.02593 17.947 6.02593 17.6579V15.0629H6.02793C6.02793 14.8395 6.16675 14.6322 6.38164 14.5644L7.33864 14.2607L6.17209 10.7902C6.16141 10.7644 6.15206 10.7379 6.14539 10.7106L4.80599 6.72558L4.80532 6.72279L4.2414 5.04583H1.50052H1.49986ZM16.5643 18.4413C16.4108 18.2807 16.1993 18.1816 15.965 18.1816C15.7308 18.1816 15.5185 18.2807 15.3657 18.4413C15.2122 18.6018 15.1175 18.8232 15.1175 19.0682C15.1175 19.3133 15.2122 19.5353 15.3657 19.6952C15.5192 19.8557 15.7308 19.9549 15.965 19.9549C16.1993 19.9549 16.4108 19.855 16.5643 19.6952C16.7178 19.5346 16.8126 19.3133 16.8126 19.0682C16.8126 18.8232 16.7178 18.6011 16.5643 18.4413ZM9.95738 18.4413C9.80389 18.2807 9.59234 18.1816 9.35809 18.1816C9.12384 18.1816 8.91162 18.2807 8.75879 18.4413C8.6053 18.6018 8.51053 18.8232 8.51053 19.0682C8.51053 19.3133 8.6053 19.5353 8.75879 19.6952C8.91229 19.8557 9.12384 19.9549 9.35809 19.9549C9.59234 19.9549 9.80456 19.855 9.95738 19.6952C10.1109 19.5346 10.2056 19.3133 10.2056 19.0682C10.2056 18.8232 10.1109 18.6011 9.95738 18.4413ZM6.98093 10.0544H9.29803L9.00772 7.07676H5.97988L6.98093 10.0544ZM10.2997 10.0544H12.8878V7.07676H10.0094L10.2997 10.0544ZM13.8875 10.0544H16.4755L16.7658 7.07676H13.8875V10.0544ZM17.4779 10.0544H19.9238L20.8194 7.07676H17.7682L17.4779 10.0544ZM19.6088 11.1002H17.3758L17.1976 12.9266L19.1323 12.6857L19.6095 11.1002H19.6088ZM16.3734 11.1002H13.8875V13.3385L16.1826 13.0529L16.3728 11.1002H16.3734ZM12.8878 11.1002H10.4018L10.6595 13.7406L12.8878 13.4634V11.1002ZM9.40013 11.1002H7.33263L8.31833 14.0324L9.66975 13.8642L9.40013 11.1002Z" fill="#5F6368" stroke="#5F6368" stroke-width="2" mask="url(#path-1-inside-1_98_59)" />
</svg>

<svg xmlns="http://www.w3.org/2000/svg" width="24" height="24" fill="none"><mask id="path-1-inside-1_98_59" fill="#fff"><path d="M1.5 5.046a.51.51 0 0 1-.5-.523c0-.29.224-.523.5-.523h3.093c.232 0 .428.165.484.39l.551 1.64H21.5c.276 0 .5.235.5.524a.6.6 0 0 1-.033.188l-1.192 3.962-.018.062-.77 2.554a.5.5 0 0 1-.417.363l-6.098.76-.05.006-5.347.666-1.05.334v1.686h12.063c.276 0 .5.234.5.523s-.224.523-.5.523h-1.482c.131.265.206.567.206.886 0 .534-.207 1.018-.542 1.367-.334.35-.796.566-1.306.566a1.8 1.8 0 0 1-1.306-.566 1.97 1.97 0 0 1-.54-1.367c0-.32.073-.62.205-.886H11a2 2 0 0 1-.336 2.253c-.334.35-.796.566-1.306.566a1.8 1.8 0 0 1-1.306-.566 1.97 1.97 0 0 1-.541-1.367c0-.32.074-.62.205-.886h-1.19a.51.51 0 0 1-.5-.523v-2.595h.002a.52.52 0 0 1 .354-.499l.957-.303-1.167-3.47a1 1 0 0 1-.027-.08L4.806 6.726v-.003L4.24 5.046zM16.564 18.44a.825.825 0 0 0-1.199 0 .9.9 0 0 0-.248.627c0 .245.095.467.249.627.153.16.365.26.599.26s.446-.1.6-.26a.9.9 0 0 0 .248-.627.9.9 0 0 0-.249-.627m-6.607 0a.825.825 0 0 0-1.199 0 .9.9 0 0 0-.247.627c0 .245.094.467.248.627.153.16.365.26.6.26.233 0 .446-.1.598-.26a.9.9 0 0 0 .249-.627.9.9 0 0 0-.249-.627m-2.976-8.387h2.317l-.29-2.977H5.98zm3.319 0h2.588V7.077h-2.879zm3.587 0h2.589l.29-2.977h-2.878zm3.59 0h2.447l.895-2.977h-3.05zM19.61 11.1h-2.233l-.178 1.827 1.934-.241zm-3.236 0h-2.486v2.239l2.296-.286zm-3.485 0h-2.486l.258 2.64 2.228-.277zm-3.488 0H7.333l.985 2.932 1.352-.168z"/></mask><path fill="#5F6368" stroke="#5F6368" stroke-width="2" d="M1.5 5.046a.51.51 0 0 1-.5-.523c0-.29.224-.523.5-.523h3.093c.232 0 .428.165.484.39l.551 1.64H21.5c.276 0 .5.235.5.524a.6.6 0 0 1-.033.188l-1.192 3.962-.018.062-.77 2.554a.5.5 0 0 1-.417.363l-6.098.76-.05.006-5.347.666-1.05.334v1.686h12.063c.276 0 .5.234.5.523s-.224.523-.5.523h-1.482c.131.265.206.567.206.886 0 .534-.207 1.018-.542 1.367-.334.35-.796.566-1.306.566a1.8 1.8 0 0 1-1.306-.566 1.97 1.97 0 0 1-.54-1.367c0-.32.073-.62.205-.886H11a2 2 0 0 1-.336 2.253c-.334.35-.796.566-1.306.566a1.8 1.8 0 0 1-1.306-.566 1.97 1.97 0 0 1-.541-1.367c0-.32.074-.62.205-.886h-1.19a.51.51 0 0 1-.5-.523v-2.595h.002a.52.52 0 0 1 .354-.499l.957-.303-1.167-3.47a1 1 0 0 1-.027-.08L4.806 6.726v-.003L4.24 5.046H1.5ZM16.564 18.44a.825.825 0 0 0-1.199 0 .9.9 0 0 0-.248.627c0 .245.095.467.249.627.153.16.365.26.599.26s.446-.1.6-.26a.9.9 0 0 0 .248-.627.9.9 0 0 0-.249-.627Zm-6.607 0a.825.825 0 0 0-1.199 0 .9.9 0 0 0-.247.627c0 .245.094.467.248.627.153.16.365.26.6.26.233 0 .446-.1.598-.26a.9.9 0 0 0 .249-.627.9.9 0 0 0-.249-.627Zm-2.976-8.387h2.317l-.29-2.977H5.98zm3.319 0h2.588V7.077h-2.879zm3.587 0h2.589l.29-2.977h-2.878zm3.59 0h2.447l.895-2.977h-3.05zM19.61 11.1h-2.233l-.178 1.827 1.934-.241.477-1.586Zm-3.236 0h-2.486v2.239l2.296-.286.19-1.953Zm-3.485 0h-2.486l.258 2.64 2.228-.277zm-3.488 0H7.333l.985 2.932 1.352-.168z" mask="url(#path-1-inside-1_98_59)"/></svg>
